X:1
T:Kedron (Dare), LM
T:Kedron (Dare), LM
T:Attributed to Elkanah Kelsay Dare (1782-1826)
T:Public Domain Courtesy of the Cyber Hymnal™
C:Attributed to Elkanah Kelsay Dare (1782-1826)
Z:Public Domain
Z:Courtesy of the Cyber Hymnal™
%%score ( 1 2 ) ( 3 4 )
L:1/8
M:4/4
K:G
V:1 treble 
V:2 treble 
V:3 bass 
V:4 bass 
V:1
 (G3 F) | [EG]2 E2 [GB]4 | [GB]4 [EG]2 [^DF]2 | E4 (G3 F) | [EG]2 [GB]2 [Ge]4 | %5
 (f2 e2) [Gd]2 [Ec]2 | [EB]8 | [Ge]4 [G^d]2 [Ee]2 | [GB]4 ([FA]3 [GB]) | [Fd]2 [EB]2 [DA]4 | %10
 [FA]4 [GB]2 [EB]2 | ([GB]3 A) ([GB]3 [FA]) | [EG]2 [^DF]2 E4- | E4 |] %14
V:2
 G4 | x2 E2 x4 | x8 | E4 E4 | x8 | F4 x4 | x8 | x8 | x8 | x8 | x8 | x3 A x4 | x4 E4- | E4 |] %14
V:3
 [E,B,]4 | [B,,B,]2 [B,,B,]2 [E,G,]4 | [E,G,]4 [G,B,]2 (A,B,) | [E,B,]4 B,4 | %4
 [G,E]2 [E,E]2 [E,E]4 | B,4 G,2 [E,A,]2 | [E,B,]8 | [E,B,]4 B,2 [A,E]2 | [G,^D]4 E4 | %9
 [D,B,]2 [E,E]2 [D,D]4 | [D,D]4 [G,^D]2 [G,E]2 | (B,3 A,) (G,3 A,) | [E,B,]2 [B,,B,]2 [E,B,]4- | %13
 [E,B,]4 |] %14
V:4
 x4 | x8 | x8 | x4 (E,3 F,) | x8 | B,4 G,2 x2 | x8 | x4 B,2 x2 | x4 (A,3 G,) | x8 | x8 | E,4 E,4 | %12
 x8 | x4 |] %14

